X:55
T:N. P.
B:Preston's Twenty four COUNTRY DANCES for the Year 1801
L:1/8
M:6/8
N:(P).
O:England
Z:Richard Robinson 
%%Dancenotes:1st Lady & 2d Gent: lead down the middle & up again.
%%Dancenotes:The 1st Gent: & 2d Lady do the same ___ 1st. Cu down the middle, up again & Allemande
%%Page:6
%%TUNEURL: http://www.leeds.ac.uk/music/Info/RRTuneBk/gettune/00001181.html
%%ID:00001181
K:A
c2B A2e | c3 ABc | def cde | BcA GFE | \
c2B A2e | c3 Ace | f2e f2g | a3- a2 ::
B2B Bcd | efg a2A | B2B Bcd | efd c2e | \
f3 agf | e2d cde | f2e d2c | B2A GFE !D.C.! |]
